X:293
T:Tinker's Apron (reel), The
T:Monaghan Twig 
B:CRE2.152 (AprÃÂÃÂÃÂÃÂºn an TincÃÂÃÂÃÂÃÂ©ara)
F:file ID: cre.2/293tink_a
L:1/8
M:C
R:reel
Q:180
K:G
"A modal"
ed|cAAB cAAB|cAAG e2ed|cAAB c2cA|BGGB d2ed|
cAAB cAAB|cAAG e2ed|cAAB c2cA|BGGB d4||
cdef gfed|cdef eABA|(3Bcd ef gfge|dBgB d4|
cdef gfed|cdef eABA|(3Bcd ef g2ge|dBgB d4||

%%%

